X:1
T:Out of the Shadow-Land
T:Out of the Shadow-Land
T:Ira David Sankey
T:Ira David Sankey, 1900
T:Public Domain Courtesy of the Cyber Hymnal™
T:Public Domain Courtesy of the Cyber Hymnal™
C:Ira David Sankey
Z:Public Domain
Z:Courtesy of the Cyber Hymnal™
%%score ( 1 2 ) ( 3 4 )
L:1/8
Q:1/4=80
M:6/8
K:F
V:1 treble 
V:2 treble 
V:3 bass 
V:4 bass 
V:1
 [Fc]>[F=B][Fc] [Fd][Fc][FA] | [EG]F[EG] [FA] F2 | [DF][DB][Fd] [Fc]>[FB][FA] | [EG][Ec][D=B] c3 | %4
w: 1.~Out of the sha- dow- land,|in- to the sun- shine,|Cloud- less, e- ter- nal, that|fades not a- way;|
w: 2.~Out of the sha- dow- land,|wea- ry and change- ful,|Out of the val- ley of|sor- row and night,|
w: 3.~Out of the sha- dow- land,|o- ver life’s o- cean,|In- to the rap- ture and|joy of the Lord,|
 [Fc]>[F=B][Fc] [Fd][Fc][FA] | [EG]F[EG] [FA] F2 | [DF]>[CE][B,D] C[CF][FA] | %7
w: Soft- ly and ten- der- ly|Je- sus hath called him|Home, where the ran- somed are|
w: In- to the rest of the|life ev- er- last- ing,|In- to the sum- mer of|
w: Safe in the Fa- ther’s house,|wel- comed by an- gels,|His the bright crown and e-|
 [EG]!fermata![EA][EG] F3 ||"^Refrain" [EG]>[FA][GB] [GB][FA][EG] | [FA][FA][FB] [Fd] [Fc]2 | %10
w: gath- ering to- day.|||
w: end- less de- light.|Si- lent- ly, peace- ful- ly,|an- gels have borne him,|
w: ter- nal re- ward.|||
 [Ec]>[Ec][Ec] [Gc][F=B][Ec] | [Ge][Ge][Fd] c3 | [Fc]>[F=B][Fc] [Fd][Fc][FA] | [EG]F[EG] [FA] F2 | %14
w: ||||
w: In- to the beau- ti- ful|man- sions a- bove;|There shall he rest from earth’s|toil- ing for- ev- er,|
w: ||||
 [DF]>[CE][B,D] C[CF][FA] | [EG]!fermata![EA][EG] F3 |] %16
w: ||
w: Safe in the arms of God’s|in- fi- nite love.|
w: ||
V:2
 x6 | x F x (F_E) x | x6 | x3 (EFG) | x6 | x F x (F_E) x | x3 C x2 | x3 F3 || x6 | x6 | x6 | %11
 x3 (E2 G) | x6 | x F x (F_E) x | x3 C x2 | x3 F3 |] %16
V:3
 [F,A,]>[F,^G,][F,A,] [F,B,][F,A,][F,C] | [C,B,][C,A,][C,C] [F,C] [F,A,]2 | %2
 [B,,B,][B,,F,][B,,B,] [F,A,]>[F,D][F,C] | [G,C]G,G, (G,A,B,) | %4
 [F,A,]>[F,^G,][F,A,] [F,B,][F,A,][F,C] | [C,B,][C,A,][C,C] [F,C] [F,A,]2 | %6
 [B,,B,]>[B,,F,][B,,F,] [F,A,][F,A,][F,C] | [C,B,]!fermata![C,C][C,B,] [F,A,]3 || %8
 [C,C]>[C,C][C,C] [C,C][C,C][C,C] | [F,C][F,C][F,D] [F,B,] [F,A,]2 | G,>G,G, [E,C][D,G,][C,G,] | %11
 G,[G,C][G,,=B,] (C2 _B,) | [F,A,]>[F,^G,][F,A,] [F,B,][F,A,][F,C] | %13
 [C,B,][C,A,][C,C] [F,C] [F,A,]2 | [B,,B,]>[B,,F,][B,,F,] [F,A,][F,A,][F,C] | %15
 [C,B,]!fermata![C,C][C,B,] [F,A,]3 |] %16
V:4
 x6 | x6 | x6 | x G,G, C,3 | x6 | x6 | x6 | x6 || x6 | x6 | G,>G,G, x3 | G, x C,3 x | x6 | x6 | %14
 x6 | x6 |] %16

